src/pos-icons/format-list-bulleted-triangle.svg

<svg height="24" viewBox="0 0 24 24" width="24" xmlns="http://www.w3.org/2000/svg"><path d="m5 15.5 2.5 4.5h-5zm4 3.5h12v-2h-12zm-4-9.5 2.5 4.5h-5zm4 3.5h12v-2h-12zm-4-9.5 2.5 4.5h-5zm4 3.5h12v-2h-12z"/></svg>

<?xml version="1.0" encoding="UTF-8"?><!DOCTYPE svg PUBLIC "-//W3C//DTD SVG 1.1//EN" "http://www.w3.org/Graphics/SVG/1.1/DTD/svg11.dtd"><svg xmlns="http://www.w3.org/2000/svg" xmlns:xlink="http://www.w3.org/1999/xlink" version="1.1" id="mdi-format-list-bulleted-triangle" width="24" height="24" viewBox="0 0 24 24"><path d="M5,15.5L7.5,20H2.5L5,15.5M9,19H21V17H9V19M5,9.5L7.5,14H2.5L5,9.5M9,13H21V11H9V13M5,3.5L7.5,8H2.5L5,3.5M9,7H21V5H9V7Z" /></svg>
